T: Mary Cotter
M: 6/8
L: 1/8
K: Amaj
e |: aec A2 F | GAB d2 B | cec Ace | dBB Bce |aec A2 F | GAB d2 B | cec BdB | cAA A2 :|e |: f2 a fec | BdB c2 B | ABc eae | fee e2a |[1 faf fec | BdB c2 B | ABc BeB | cAA A2 a :|[2 (f/g/a)g fec | aec d2 f | eac BeB | cAA A2 |||: A-- --- | E-- D--| A-- --- | E-- --- ||A-- --- | E-- D-- | A-- E-- | A-- --- :||: D-- --- | E—A-- | --- --- |E-- --- |1. |D-- --- | E-- A--- | --- E--- | A-- --- :|2. |D-- --- | A-- D-- | A-- E-- | A-- --- ||: aec ABA | GAB d2 B | cBc Ace | dcd Bce |aec ABA | GAB d2 B | cBc BAB | cAA Ace :|{g}f2 f {g}gec | BcB c2 B | ABc ece | {g}fec e2 e |{g}f2 f {g}gec | BcB c2 B | A2 c BAB | cAA Ace ||{g}f2 f {g}gec | BcB c2 B | ABc ece | {g}fec e2 e |f/2g/2af {g}fec | aec def |edc BAB | cAA A3 |
